%
(Header)
(Generated by gcodetools from Inkscape.)
(Using default header. To add your own header create file "header" in the output dir.)
M3
(Header end.)
G21 (All units in mm)

(Start cutting path id: path3724)
(Change tool to Default tool)

G00 Z5.000000
G00 X11.661383 Y66.828221

G01 Z-1.000000 F100.0(Penetrate)
G03 X11.550006 Y66.792205 Z-1.000000 I0.000000 J-0.190224 F400.000000
G03 X9.419195 Y65.209071 Z-1.000000 I57.635862 J-79.800195
G02 X7.296538 Y63.594519 Z-1.000000 I-368.225004 J481.904044
G02 X6.257086 Y62.816501 Z-1.000000 I-70.781255 J93.482200
G03 X4.504444 Y61.320350 Z-1.000000 I9.851708 J-13.315245
G03 X4.343023 Y60.935641 Z-1.000000 I0.377719 J-0.384709
G03 X4.365391 Y60.539721 Z-1.000000 I3.515171 J0.000000
G03 X4.678961 Y57.970791 Z-1.000000 I149.677810 J16.966459
G02 X5.009267 Y55.403731 Z-1.000000 I-615.962504 J-80.561330
G02 X5.391851 Y52.328221 Z-1.000000 I-723.914838 J-91.614255
G03 X7.428539 Y35.852231 Z-1.000000 I6082.906266 J743.577980
G03 X9.206304 Y21.810641 Z-1.000000 I4413.929670 J551.701311
G02 X11.513585 Y3.445760 Z-1.000000 I-3603.335372 J-462.034249
G02 X11.575445 Y2.554781 Z-1.000000 I-8.348390 J-1.027258
G01 X11.663532 Y2.548707 Z-1.000000
G03 X12.417242 Y7.976651 Z-1.000000 I-170.719500 J26.471947
G02 X13.030477 Y12.965811 Z-1.000000 I13404.571969 J-1645.224561
G02 X13.407476 Y16.027431 Z-1.000000 I45145.631317 J-5554.714371
G03 X13.784018 Y19.088879 Z-1.000000 I-8729.248800 J1075.396177
G03 X14.452398 Y24.531341 Z-1.000000 R338104.403695
G02 X15.125883 Y29.973297 Z-1.000000 I2884.658903 J-354.236724
G02 X15.243414 Y30.880951 Z-1.000000 I96.679536 J-12.057469
G03 X15.360968 Y31.788853 Z-1.000000 I-96.381809 J12.940928
G03 X16.036383 Y37.232511 Z-1.000000 I-4446.050808 J554.402129
G02 X16.709859 Y42.674882 Z-1.000000 I9359.139790 J-1155.388552
G02 X17.096929 Y45.793061 Z-1.000000 I17336.085915 J-2150.476378
G01 X17.884039 Y52.142671 Z-1.000000
G02 X18.287648 Y55.374241 Z-1.000000 I2389.839950 J-296.839532
G02 X18.606695 Y57.896571 Z-1.000000 I1413.803842 J-177.549229
G03 X18.904313 Y60.419620 Z-1.000000 I-135.595719 J17.273918
G03 X18.928961 Y60.875091 Z-1.000000 I-4.196054 J0.455471
G03 X18.750839 Y61.310334 Z-1.000000 I-0.620821 J-0.000000
G03 X17.016851 Y62.818451 Z-1.000000 I-10.508845 J-10.331855
G02 X15.978146 Y63.597698 Z-1.000000 I66.191050 J89.311866
G02 X15.382086 Y64.060641 Z-1.000000 I20.982040 J27.630547
G03 X11.873598 Y66.757941 Z-1.000000 I-87.069120 J-109.623901
G03 X11.661383 Y66.828221 Z-1.000000 I-0.212215 J-0.285257
G01 X11.661383 Y66.828221 Z-1.000000
G00 Z5.000000

(End cutting path id: path3724)


(Start cutting path id: path3724)
(Change tool to Default tool)

G00 Z5.000000
G00 X22.870367 Y64.332001

G01 Z-1.000000 F100.0(Penetrate)
G01 X22.870367 Y56.324191 Z-1.000000 F400.000000
G03 X23.143463 Y48.042142 Z-1.000000 I125.719454 J0.000000
G03 X23.462164 Y47.351531 Z-1.000000 I1.059135 J0.069925
G03 X23.770568 Y47.211984 Z-1.000000 I0.347065 J0.356463
G03 X26.030523 Y47.152311 Z-1.000000 I1.710077 J21.939743
G03 X28.260370 Y47.371120 Z-1.000000 I-0.384566 J15.390467
G03 X28.690679 Y47.611301 Z-1.000000 I-0.126029 J0.731355
G01 X29.046148 Y48.013641 Z-1.000000
G01 X29.046148 Y56.173801 Z-1.000000
G01 X29.046148 Y64.332001 Z-1.000000
G01 X27.731695 Y64.332001 Z-1.000000
G01 X26.419195 Y64.332001 Z-1.000000
G01 X26.419195 Y57.302711 Z-1.000000
G01 X26.419195 Y50.271451 Z-1.000000
G01 X25.958257 Y50.271451 Z-1.000000
G01 X25.499273 Y50.271451 Z-1.000000
G01 X25.499273 Y57.302711 Z-1.000000
G01 X25.499273 Y64.332001 Z-1.000000
G01 X24.184820 Y64.332001 Z-1.000000
G01 X22.870367 Y64.332001 Z-1.000000
G00 Z5.000000

(End cutting path id: path3724)


(Start cutting path id: path3724)
(Change tool to Default tool)

G00 Z5.000000
G00 X29.571539 Y64.332001

G01 Z-1.000000 F100.0(Penetrate)
G01 X29.571539 Y55.707001 Z-1.000000 F400.000000
G01 X29.571539 Y47.080051 Z-1.000000
G01 X30.852789 Y47.144551 Z-1.000000
G01 X32.134039 Y47.210951 Z-1.000000
G01 X32.169199 Y54.183601 Z-1.000000
G01 X32.204359 Y61.158211 Z-1.000000
G01 X32.661391 Y61.158211 Z-1.000000
G01 X33.120375 Y61.158211 Z-1.000000
G01 X33.120375 Y54.126961 Z-1.000000
G01 X33.120375 Y47.097671 Z-1.000000
G01 X34.434828 Y47.097671 Z-1.000000
G01 X35.747328 Y47.097671 Z-1.000000
G01 X35.747328 Y55.117201 Z-1.000000
G03 X34.953155 Y63.537738 Z-1.000000 I-45.038150 J-0.000000
G03 X33.993422 Y64.332041 Z-1.000000 I-0.959733 J-0.182657
G03 X32.844327 Y64.204328 Z-1.000000 I0.000000 J-5.233349
G03 X32.505141 Y63.996101 Z-1.000000 I0.135157 J-0.600527
G02 X32.282341 Y63.891255 Z-1.000000 I-0.222800 J0.184303
G02 X32.151625 Y63.996101 Z-1.000000 I0.000000 J0.133908
G03 X31.962800 Y64.190466 Z-1.000000 I-0.252151 J-0.056060
G03 X30.825453 Y64.332041 Z-1.000000 I-1.137347 J-4.497675
G01 X29.571539 Y64.332001 Z-1.000000
G00 Z5.000000

(End cutting path id: path3724)


(Start cutting path id: path3724)
(Change tool to Default tool)

G00 Z5.000000
G00 X36.141851 Y64.332001

G01 Z-1.000000 F100.0(Penetrate)
G01 X36.141851 Y55.865211 Z-1.000000 F400.000000
G03 X36.186727 Y47.411228 Z-1.000000 I796.324992 J-0.000000
G03 X36.233651 Y47.240211 Z-1.000000 I0.348590 J0.003701
G03 X36.366946 Y47.157007 Z-1.000000 I0.144965 J0.083864
G03 X37.561776 Y47.146411 Z-1.000000 I0.684347 J9.797595
G01 X38.796151 Y47.210911 Z-1.000000
G01 X38.815681 Y55.771451 Z-1.000000
G01 X38.835211 Y64.332001 Z-1.000000
G01 X37.489507 Y64.332001 Z-1.000000
G01 X36.141851 Y64.332001 Z-1.000000
G00 Z5.000000

(End cutting path id: path3724)


(Start cutting path id: path3724)
(Change tool to Default tool)

G00 Z5.000000
G00 X40.634039 Y64.283201

G01 Z-1.000000 F100.0(Penetrate)
G03 X39.346126 Y64.295556 Z-1.000000 I-0.803450 J-16.620347 F400.000000
G03 X39.296148 Y64.244101 Z-1.000000 I0.001499 J-0.051455
G03 X39.308226 Y64.066507 Z-1.000000 I1.311731 J-0.000000
G03 X40.415289 Y56.054651 Z-1.000000 I2667.159465 J364.460687
G02 X40.729520 Y53.786820 Z-1.000000 I-1007.031500 J-140.689893
G02 X41.069586 Y51.292931 Z-1.000000 I-1206.509852 J-165.789718
G03 X41.413297 Y48.798734 Z-1.000000 I510.628257 J69.096054
G03 X41.540289 Y47.939411 Z-1.000000 I58.647125 J8.227885
G01 X41.673101 Y47.081991 Z-1.000000
G01 X43.009039 Y47.146391 Z-1.000000
G01 X44.343023 Y47.210891 Z-1.000000
G01 X44.692633 Y49.818311 Z-1.000000
G02 X46.076622 Y60.035535 Z-1.000000 I3403.655639 J-455.844731
G02 X46.610601 Y63.830031 Z-1.000000 I517.450567 J-70.883238
G03 X46.434529 Y64.120821 Z-1.000000 I-0.264957 J0.038270
G03 X45.325445 Y64.283151 Z-1.000000 I-0.969596 J-2.754599
G01 X43.968023 Y64.218751 Z-1.000000
G01 X43.512945 Y60.759771 Z-1.000000
G02 X43.014277 Y57.355417 Z-1.000000 I-114.602437 J15.048208
G02 X42.952398 Y57.302741 Z-1.000000 I-0.061879 J0.010007
G02 X42.890463 Y57.349475 Z-1.000000 I-0.000011 J0.064393
G02 X42.839117 Y57.699221 Z-1.000000 I1.291159 J0.368197
G03 X42.811756 Y58.094457 Z-1.000000 I-3.520703 J-0.045162
G03 X42.403570 Y61.158201 Z-1.000000 I-217.646594 J-27.438238
G01 X41.973883 Y64.218751 Z-1.000000
G01 X40.634039 Y64.283201 Z-1.000000
G00 Z5.000000

(End cutting path id: path3724)


(Start cutting path id: path3724)
(Change tool to Default tool)

G00 Z5.000000
G00 X47.052007 Y64.332001

G01 Z-1.000000 F100.0(Penetrate)
G01 X47.054007 Y55.859351 Z-1.000000 F400.000000
G03 X47.099529 Y47.395835 Z-1.000000 I816.097518 J0.157597
G03 X47.143847 Y47.234351 Z-1.000000 I0.329029 J0.003476
G03 X47.270960 Y47.157199 Z-1.000000 I0.134279 J0.077944
G03 X49.063769 Y47.146451 Z-1.000000 I1.030099 J22.295786
G01 X50.897754 Y47.210951 Z-1.000000
G01 X51.057910 Y48.011731 Z-1.000000
G03 X51.205250 Y48.816065 Z-1.000000 I-24.181773 J4.845347
G03 X51.311816 Y49.542981 Z-1.000000 I-19.041528 J3.162756
G01 X51.405566 Y50.271491 Z-1.000000
G01 X50.573535 Y50.271491 Z-1.000000
G01 X49.741504 Y50.271491 Z-1.000000
G01 X49.782524 Y52.527351 Z-1.000000
G01 X49.823544 Y54.785171 Z-1.000000
G01 X50.571591 Y54.853571 Z-1.000000
G01 X51.317685 Y54.921971 Z-1.000000
G01 X51.356695 Y56.337981 Z-1.000000
G01 X51.395757 Y57.755951 Z-1.000000
G01 X50.600836 Y57.755951 Z-1.000000
G02 X49.917760 Y57.872286 Z-1.000000 I0.000000 J2.063555
G02 X49.794195 Y58.039151 Z-1.000000 I0.061220 J0.174517
G02 X49.742830 Y60.080184 Z-1.000000 I59.135639 J2.509381
G02 X49.772715 Y60.730561 Z-1.000000 I6.050043 J0.047874
G02 X50.002066 Y61.119065 Z-1.000000 I0.534353 J-0.053502
G02 X50.542246 Y61.261811 Z-1.000000 I0.468282 J-0.678630
G03 X51.206080 Y61.269772 Z-1.000000 I0.291906 J3.340566
G03 X51.303965 Y61.347711 Z-1.000000 I-0.013036 J0.116809
G03 X51.322610 Y61.500289 Z-1.000000 I-0.339531 J0.118919
G03 X51.155527 Y62.916071 Z-1.000000 I-29.857105 J-2.805824
G01 X50.952402 Y64.332081 Z-1.000000
G01 X49.003183 Y64.332081 Z-1.000000
G01 X47.052007 Y64.332001 Z-1.000000
G00 Z5.000000

(End cutting path id: path3724)


(Start cutting path id: path3724)
(Change tool to Default tool)

G00 Z5.000000
G00 X54.524664 Y61.255951

G01 Z-1.000000 F100.0(Penetrate)
G02 X54.659570 Y61.312191 Z-1.000000 I0.129928 J-0.121742 F400.000000
G02 X55.053961 Y61.240351 Z-1.000000 I-0.036955 J-1.321367
G01 X55.466070 Y61.097771 Z-1.000000
G01 X55.428960 Y59.050891 Z-1.000000
G01 X55.391850 Y57.004021 Z-1.000000
G01 X54.954350 Y56.982521 Z-1.000000
G02 X54.537958 Y57.003735 Z-1.000000 I-0.101872 J2.097523
G02 X54.460210 Y57.056721 Z-1.000000 I0.016270 J0.107408
G02 X53.820311 Y59.514256 Z-1.000000 I4.116305 J2.383890
G02 X54.524660 Y61.255941 Z-1.000000 I2.605311 J-0.040340
G01 X54.524664 Y61.255951 Z-1.000000
G00 Z5.000000

(End cutting path id: path3724)


(Start cutting path id: path3724)
(Change tool to Default tool)

G00 Z5.000000
G00 X56.559820 Y64.308601

G01 Z-1.000000 F100.0(Penetrate)
G03 X55.858404 Y64.320992 Z-1.000000 I-0.456968 J-6.008918 F400.000000
G02 X54.542242 Y64.279301 Z-1.000000 I-2.997756 J73.841578
G01 X51.844976 Y64.218801 Z-1.000000
G01 X51.809816 Y55.943411 Z-1.000000
G03 X51.806979 Y47.668786 Z-1.000000 I1079.950371 J-4.507523
G03 X51.839116 Y47.380911 Z-1.000000 I1.347551 J0.004701
G03 X52.001108 Y47.220080 Z-1.000000 I0.206391 J0.045884
G03 X53.153569 Y47.097711 Z-1.000000 I1.152461 J5.365715
G01 X54.405522 Y47.097711 Z-1.000000
G01 X54.405522 Y50.271531 Z-1.000000
G02 X54.457163 Y53.397132 Z-1.000000 I94.615629 J-0.000000
G02 X54.509038 Y53.447321 Z-1.000000 I0.051875 J-0.001715
G02 X54.570411 Y53.398127 Z-1.000000 I0.000000 J-0.062880
G02 X55.206303 Y50.328181 Z-1.000000 I-100.898870 J-22.500479
G01 X55.803960 Y47.210991 Z-1.000000
G01 X57.141850 Y47.146491 Z-1.000000
G03 X58.397509 Y47.169110 Z-1.000000 I0.457639 J9.458994
G03 X58.481694 Y47.259781 Z-1.000000 I-0.007747 J0.091610
G03 X58.466755 Y47.436178 Z-1.000000 I-0.916288 J0.011231
G03 X57.858647 Y50.666031 Z-1.000000 I-332.144748 J-60.863149
G01 X57.235600 Y53.896491 Z-1.000000
G01 X57.528569 Y54.251961 Z-1.000000
G03 X57.688058 Y54.655333 Z-1.000000 I-0.540655 J0.446986
G03 X57.823491 Y59.007821 Z-1.000000 I-69.871663 J4.352488
G03 X57.430402 Y63.519326 Z-1.000000 I-26.085957 J0.000000
G03 X56.559819 Y64.308601 Z-1.000000 I-0.943229 J-0.165625
G01 X56.559820 Y64.308601 Z-1.000000
G00 Z5.000000

(End cutting path id: path3724)


(Start cutting path id: path3724)
(Change tool to Default tool)

G00 Z5.000000
G00 X59.419195 Y64.332001

G01 Z-1.000000 F100.0(Penetrate)
G01 X59.145757 Y63.734351 Z-1.000000 F400.000000
G03 X58.989252 Y63.111812 Z-1.000000 I1.618962 J-0.737945
G03 X58.874273 Y59.570281 Z-1.000000 I54.484687 J-3.541531
G03 X58.988198 Y56.028049 Z-1.000000 I55.125732 J0.000000
G03 X59.141851 Y55.415991 Z-1.000000 I1.742891 J0.112225
G03 X59.525658 Y54.995712 Z-1.000000 I0.842454 J0.383956
G03 X60.290289 Y54.761691 Z-1.000000 I0.902439 J1.582422
G01 X61.173101 Y54.693291 Z-1.000000
G01 X61.210211 Y52.482351 Z-1.000000
G01 X61.249271 Y50.271411 Z-1.000000
G01 X59.995365 Y50.271411 Z-1.000000
G03 X58.893741 Y50.119062 Z-1.000000 I0.000000 J-4.059059
G03 X58.741459 Y49.917901 Z-1.000000 I0.056724 J-0.201161
G03 X58.913034 Y47.877796 Z-1.000000 I12.214705 J-0.000000
G03 X59.190677 Y47.259701 Z-1.000000 I1.327432 J0.224867
G03 X59.372542 Y47.166300 Z-1.000000 I0.195580 J0.157063
G03 X61.259037 Y47.146411 Z-1.000000 I1.168285 J21.334953
G03 X62.781056 Y48.152634 Z-1.000000 I-0.058538 J1.742764
G03 X63.735599 Y52.460871 Z-1.000000 I-9.245133 J4.308237
G03 X63.132493 Y57.152214 Z-1.000000 I-18.547675 J-0.000000
G03 X62.350834 Y57.755791 Z-1.000000 I-0.781659 J-0.204353
G01 X61.491459 Y57.755791 Z-1.000000
G01 X61.528569 Y59.505791 Z-1.000000
G01 X61.567629 Y61.255791 Z-1.000000
G01 X62.866457 Y61.187391 Z-1.000000
G03 X63.995065 Y61.263974 Z-1.000000 I0.247867 J4.701663
G03 X64.098879 Y61.421771 Z-1.000000 I-0.024611 J0.129239
G02 X64.042694 Y61.726587 Z-1.000000 I4.159509 J0.924280
G02 X63.862550 Y63.029191 Z-1.000000 I76.764593 J11.279961
G01 X63.694582 Y64.331921 Z-1.000000
G01 X61.555910 Y64.331921 Z-1.000000
G01 X59.419195 Y64.332001 Z-1.000000
G00 Z5.000000

(End cutting path id: path3724)


(Start cutting path id: path3724)
(Change tool to Default tool)

G00 Z5.000000
G00 X65.587164 Y64.345701

G01 Z-1.000000 F100.0(Penetrate)
G01 X65.460211 Y63.488281 Z-1.000000 F400.000000
G03 X65.359374 Y61.440838 Z-1.000000 I10.409854 J-1.538892
G03 X65.567633 Y61.269531 Z-1.000000 I0.181822 J0.008797
G02 X65.795891 Y61.072754 Z-1.000000 I0.028984 J-0.197156
G02 X65.573533 Y57.789061 Z-1.000000 I-23.691122 J-0.045108
G03 X64.197193 Y47.476566 Z-1.000000 I1155.621916 J-159.481241
G03 X64.218064 Y47.267581 Z-1.000000 I0.461263 J-0.059469
G01 X64.220064 Y47.267581 Z-1.000000
G03 X64.960720 Y46.729257 Z-1.000000 I0.751582 J0.255388
G03 X66.681002 Y47.234381 Z-1.000000 I0.041838 J3.039425
G03 X66.814163 Y47.412141 Z-1.000000 I-0.182254 J0.275283
G03 X66.889986 Y47.914061 Z-1.000000 I-1.623344 J0.501920
G02 X67.085816 Y48.260657 Z-1.000000 I0.404632 J0.000000
G02 X67.792330 Y48.457031 Z-1.000000 I0.706514 J-1.172762
G02 X68.499097 Y48.236526 Z-1.000000 I0.000000 J-1.242926
G02 X68.774752 Y47.777341 Z-1.000000 I-0.369054 J-0.533880
G01 X68.854832 Y47.097661 Z-1.000000
G01 X70.171238 Y47.097661 Z-1.000000
G03 X71.387169 Y47.197883 Z-1.000000 I0.000000 J7.426141
G03 X71.487645 Y47.316411 Z-1.000000 I-0.019673 J0.118528
G03 X71.468144 Y47.604336 Z-1.000000 I-2.135337 J-0.000000
G03 X69.727879 Y60.250001 Z-1.000000 I-4192.094070 J-570.463095
G01 X69.177097 Y64.218751 Z-1.000000
G01 X67.382176 Y64.283151 Z-1.000000
G01 X65.587164 Y64.345701 Z-1.000000
G00 Z5.000000

(End cutting path id: path3724)


(Start cutting path id: path3724)
(Change tool to Default tool)

G00 Z5.000000
G00 X72.012945 Y64.349701

G01 Z-1.000000 F100.0(Penetrate)
G01 X72.012945 Y55.716891 Z-1.000000 F400.000000
G01 X72.012945 Y47.084071 Z-1.000000
G01 X73.880135 Y47.146571 Z-1.000000
G01 X75.747315 Y47.211071 Z-1.000000
G01 X75.897715 Y48.117321 Z-1.000000
G03 X76.042155 Y49.025367 Z-1.000000 I-79.082207 J13.044847
G03 X76.134035 Y49.648571 Z-1.000000 I-55.284239 J8.469043
G01 X76.223835 Y50.271611 Z-1.000000
G01 X75.432815 Y50.271611 Z-1.000000
G01 X74.641805 Y50.271611 Z-1.000000
G01 X74.624205 Y56.963021 Z-1.000000
G03 X74.601790 Y63.652005 Z-1.000000 I-3694.929180 J-9.037517
G03 X74.593005 Y63.935681 Z-1.000000 I-5.315253 J-0.022623
G03 X74.458678 Y64.100488 Z-1.000000 I-0.181121 J-0.010479
G03 X73.294175 Y64.283331 Z-1.000000 I-1.448644 J-5.426504
G01 X72.012945 Y64.349701 Z-1.000000
G00 Z5.000000

(End cutting path id: path3724)


(Start cutting path id: path3724)
(Change tool to Default tool)

G00 Z5.000000
G00 X67.809820 Y54.127041

G01 Z-1.000000 F100.0(Penetrate)
G02 X68.022034 Y53.945322 Z-1.000000 I0.000000 J-0.214772 F400.000000
G02 X68.202398 Y51.615331 Z-1.000000 I-14.959510 J-2.329991
G02 X67.906838 Y51.318015 Z-1.000000 I-0.297321 J0.000000
G02 X67.487554 Y51.611331 Z-1.000000 I-0.002621 J0.442586
G02 X67.266462 Y53.648894 Z-1.000000 I4.130061 J1.478923
G02 X67.809820 Y54.126951 Z-1.000000 I0.543358 J-0.069761
G01 X67.809820 Y54.127041 Z-1.000000
G00 Z5.000000

(End cutting path id: path3724)


(Start cutting path id: path3724)
(Change tool to Default tool)

G00 Z5.000000
G00 X53.323492 Y44.097531

G01 Z-1.000000 F100.0(Penetrate)
G01 X51.450445 Y44.035031 Z-1.000000 F400.000000
G01 X51.415285 Y35.474481 Z-1.000000
G01 X51.380125 Y26.911981 Z-1.000000
G01 X53.323484 Y26.911981 Z-1.000000
G01 X55.266843 Y26.911981 Z-1.000000
G01 X55.426999 Y28.109251 Z-1.000000
G03 X55.286449 Y29.731601 Z-1.000000 I-3.692405 J0.497377
G03 X54.800046 Y30.087761 Z-1.000000 I-0.486403 J-0.154058
G01 X54.012945 Y30.087761 Z-1.000000
G01 X54.012945 Y32.242061 Z-1.000000
G01 X54.012945 Y34.396351 Z-1.000000
G01 X54.800054 Y34.396351 Z-1.000000
G01 X55.589117 Y34.396351 Z-1.000000
G01 X55.589117 Y35.984251 Z-1.000000
G01 X55.589117 Y37.572141 Z-1.000000
G01 X54.800054 Y37.572141 Z-1.000000
G01 X54.012945 Y37.572141 Z-1.000000
G01 X54.012945 Y39.273311 Z-1.000000
G01 X54.012945 Y40.972531 Z-1.000000
G01 X54.815679 Y40.972531 Z-1.000000
G01 X55.618414 Y40.972531 Z-1.000000
G01 X55.526614 Y42.029171 Z-1.000000
G03 X54.791060 Y43.544888 Z-1.000000 I-2.350254 J-0.204208
G03 X53.323489 Y44.097531 Z-1.000000 I-1.398987 J-1.490155
G01 X53.323492 Y44.097531 Z-1.000000
G00 Z5.000000

(End cutting path id: path3724)


(Start cutting path id: path3724)
(Change tool to Default tool)

G00 Z5.000000
G00 X47.245367 Y44.103531

G01 Z-1.000000 F100.0(Penetrate)
G01 X44.749273 Y44.035131 Z-1.000000 F400.000000
G01 X44.719973 Y35.474581 Z-1.000000
G01 X44.690673 Y26.912081 Z-1.000000
G01 X47.567627 Y26.912081 Z-1.000000
G01 X50.444580 Y26.912081 Z-1.000000
G01 X50.718017 Y27.509741 Z-1.000000
G03 X50.864948 Y28.134515 Z-1.000000 I-1.497140 J0.681754
G03 X50.989501 Y35.324191 Z-1.000000 I-207.445731 J7.189676
G03 X50.919414 Y42.530262 Z-1.000000 I-370.482688 J0.000000
G03 X50.837158 Y43.119111 Z-1.000000 I-2.496536 J-0.048568
G03 X50.217184 Y43.744965 Z-1.000000 I-0.853266 J-0.225248
G03 X47.245361 Y44.103491 Z-1.000000 I-2.692651 J-9.823399
G01 X47.245367 Y44.103531 Z-1.000000
G00 Z5.000000

(End cutting path id: path3724)


(Start cutting path id: path3724)
(Change tool to Default tool)

G00 Z5.000000
G00 X47.311773 Y40.972531

G01 Z-1.000000 F100.0(Penetrate)
G01 X47.837164 Y40.972531 Z-1.000000 F400.000000
G01 X48.362554 Y40.972531 Z-1.000000
G01 X48.362554 Y35.531121 Z-1.000000
G01 X48.362554 Y30.087761 Z-1.000000
G01 X47.837164 Y30.087761 Z-1.000000
G01 X47.311773 Y30.087761 Z-1.000000
G01 X47.311773 Y35.531121 Z-1.000000
G01 X47.311773 Y40.972531 Z-1.000000
G00 Z5.000000

(End cutting path id: path3724)


(Start cutting path id: path3724)
(Change tool to Default tool)

G00 Z5.000000
G00 X40.741461 Y40.972531

G01 Z-1.000000 F100.0(Penetrate)
G01 X41.200445 Y40.972531 Z-1.000000 F400.000000
G01 X41.661383 Y40.972531 Z-1.000000
G01 X41.661383 Y35.531121 Z-1.000000
G01 X41.661383 Y30.087761 Z-1.000000
G01 X41.200445 Y30.087761 Z-1.000000
G01 X40.741461 Y30.087761 Z-1.000000
G01 X40.741461 Y35.531121 Z-1.000000
G01 X40.741461 Y40.972531 Z-1.000000
G00 Z5.000000

(End cutting path id: path3724)


(Start cutting path id: path3724)
(Change tool to Default tool)

G00 Z5.000000
G00 X41.305914 Y44.105531

G01 Z-1.000000 F100.0(Penetrate)
G03 X38.925980 Y43.966305 Z-1.000000 I-0.388390 J-13.771812 F400.000000
G03 X38.468023 Y43.691471 Z-1.000000 I0.100207 J-0.685939
G01 X38.112554 Y43.209041 Z-1.000000
G01 X38.112554 Y35.513731 Z-1.000000
G03 X38.236908 Y27.853943 Z-1.000000 I235.970624 J0.000000
G03 X38.376226 Y27.367251 Z-1.000000 I1.037472 J0.033695
G03 X38.750873 Y27.107965 Z-1.000000 I0.462537 J0.268018
G03 X41.116461 Y26.912171 Z-1.000000 I2.365588 J14.192624
G03 X43.496881 Y27.109226 Z-1.000000 I-0.000000 J14.476216
G03 X43.942633 Y27.382871 Z-1.000000 I-0.114397 J0.686222
G01 X44.288336 Y27.853581 Z-1.000000
G01 X44.288336 Y35.408261 Z-1.000000
G03 X44.172473 Y42.938620 Z-1.000000 I-244.771055 J-0.000000
G03 X44.038336 Y43.500061 Z-1.000000 I-1.425722 J-0.043883
G03 X43.643570 Y43.816228 Z-1.000000 I-0.518701 J-0.243114
G03 X41.305914 Y44.105531 Z-1.000000 I-2.687831 J-12.129343
G01 X41.305914 Y44.105531 Z-1.000000
G00 Z5.000000

(End cutting path id: path3724)


(Start cutting path id: path3724)
(Change tool to Default tool)

G00 Z5.000000
G00 X35.624273 Y44.148531

G01 Z-1.000000 F100.0(Penetrate)
G03 X33.774825 Y43.934738 Z-1.000000 I-0.000000 J-8.106356 F400.000000
G03 X33.292242 Y43.601651 Z-1.000000 I0.183110 J-0.781424
G01 X32.923101 Y43.054781 Z-1.000000
G01 X32.923101 Y35.416111 Z-1.000000
G01 X32.923101 Y27.779391 Z-1.000000
G01 X33.233648 Y27.345791 Z-1.000000
G03 X33.635236 Y27.090214 Z-1.000000 I0.518097 J0.370789
G03 X35.565679 Y26.912201 Z-1.000000 I1.930443 J10.378258
G01 X37.587164 Y26.912201 Z-1.000000
G01 X37.587164 Y28.500091 Z-1.000000
G01 X37.587164 Y30.087981 Z-1.000000
G01 X36.569586 Y30.087981 Z-1.000000
G01 X35.550054 Y30.087981 Z-1.000000
G01 X35.571534 Y35.474701 Z-1.000000
G01 X35.593014 Y40.859471 Z-1.000000
G01 X36.589108 Y40.925871 Z-1.000000
G01 X37.587155 Y40.992271 Z-1.000000
G01 X37.587155 Y42.570391 Z-1.000000
G01 X37.587155 Y44.148521 Z-1.000000
G01 X35.624273 Y44.148531 Z-1.000000
G00 Z5.000000

(End cutting path id: path3724)


(Start cutting path id: path3724)
(Change tool to Default tool)

G00 Z5.000000
G00 X29.177007 Y37.798701

G01 Z-1.000000 F100.0(Penetrate)
G01 X29.177007 Y35.417841 Z-1.000000 F400.000000
G01 X29.177007 Y33.035031 Z-1.000000
G01 X30.819586 Y33.035031 Z-1.000000
G01 X32.462164 Y33.035031 Z-1.000000
G01 X32.462164 Y35.417841 Z-1.000000
G01 X32.462164 Y37.798701 Z-1.000000
G01 X30.819586 Y37.798701 Z-1.000000
G01 X29.177007 Y37.798701 Z-1.000000
G00 Z5.000000

(End cutting path id: path3724)


(Start cutting path id: path3724)
(Change tool to Default tool)

G00 Z5.000000
G00 X25.675054 Y44.035031

G01 Z-1.000000 F100.0(Penetrate)
G03 X23.523753 Y43.852691 Z-1.000000 I-0.000000 J-12.781994 F400.000000
G03 X23.147711 Y43.603391 Z-1.000000 I0.093888 J-0.549879
G03 X23.001398 Y43.133340 Z-1.000000 I0.785187 J-0.502204
G03 X22.870367 Y35.538931 Z-1.000000 I220.016912 J-7.594409
G03 X22.995300 Y27.937988 Z-1.000000 I231.284420 J-0.000000
G03 X23.137945 Y27.410031 Z-1.000000 I1.193622 J0.039248
G03 X23.530661 Y27.122480 Z-1.000000 I0.498757 J0.269219
G03 X25.760992 Y26.911981 Z-1.000000 I2.230331 J11.710406
G03 X27.727710 Y26.998004 Z-1.000000 I-0.000000 J22.525359
G03 X28.387913 Y27.444987 Z-1.000000 I-0.071589 J0.816797
G03 X28.617221 Y28.386173 Z-1.000000 I-1.904841 J0.962616
G03 X28.622320 Y32.574091 Z-1.000000 I-237.309751 J2.382922
G01 X28.587160 Y37.232291 Z-1.000000
G01 X27.339113 Y37.232291 Z-1.000000
G01 X26.091066 Y37.232291 Z-1.000000
G01 X26.053956 Y33.660031 Z-1.000000
G02 X25.894741 Y30.212750 Z-1.000000 I-47.905849 J0.485247
G02 X25.759034 Y30.087761 Z-1.000000 I-0.135707 J0.011177
G02 X25.626179 Y30.214421 Z-1.000000 I0.000000 J0.133006
G02 X25.499268 Y35.531121 Z-1.000000 I111.302925 J5.316700
G01 X25.499268 Y40.972531 Z-1.000000
G01 X26.954346 Y40.972531 Z-1.000000
G01 X28.411378 Y40.972531 Z-1.000000
G01 X28.317628 Y41.710811 Z-1.000000
G03 X28.214280 Y42.446245 Z-1.000000 I-24.064249 J-3.006696
G03 X28.077393 Y43.242061 Z-1.000000 I-25.877507 J-4.041459
G01 X27.927002 Y44.035031 Z-1.000000
G01 X25.675054 Y44.035031 Z-1.000000
G00 Z5.000000

(End cutting path id: path3724)


(Start cutting path id: path3724)
(Change tool to Default tool)

G00 Z5.000000
G00 X25.956304 Y23.689281

G01 Z-1.000000 F100.0(Penetrate)
G03 X23.999350 Y23.696691 Z-1.000000 I-1.105405 J-33.516751 F400.000000
G03 X23.696539 Y23.630681 Z-1.000000 I0.020918 J-0.823514
G03 X23.370690 Y23.195751 Z-1.000000 I0.212569 J-0.498785
G03 X23.120367 Y18.767401 Z-1.000000 I35.786256 J-4.244153
G03 X23.730143 Y14.801479 Z-1.000000 I13.655932 J0.069815
G03 X24.528570 Y14.212711 Z-1.000000 I0.798427 J0.246988
G01 X25.366461 Y14.212711 Z-1.000000
G01 X25.366461 Y11.945131 Z-1.000000
G01 X25.366461 Y9.677561 Z-1.000000
G01 X24.110601 Y9.677561 Z-1.000000
G03 X23.056452 Y9.506615 Z-1.000000 I0.000000 J-3.335706
G03 X22.921148 Y9.281071 Z-1.000000 I0.063838 J-0.191653
G02 X22.978662 Y8.882695 Z-1.000000 I-7.874101 J-1.340127
G02 X23.077398 Y7.976381 Z-1.000000 I-46.831955 J-5.560535
G03 X23.183737 Y7.071988 Z-1.000000 I24.903980 J2.469783
G03 X23.223883 Y6.898261 Z-1.000000 I0.963009 J0.131035
G03 X23.338268 Y6.808503 Z-1.000000 I0.124732 J0.041191
G03 X25.370367 Y6.728341 Z-1.000000 I2.032099 J25.716798
G03 X27.000145 Y7.723897 Z-1.000000 I0.000000 J1.831795
G03 X27.995367 Y11.843571 Z-1.000000 I-8.028989 J4.119674
G03 X27.878032 Y15.940950 Z-1.000000 I-71.599769 J-0.000000
G03 X27.723883 Y16.564271 Z-1.000000 I-1.740792 J-0.099782
G03 X27.334159 Y16.979593 Z-1.000000 I-0.809116 J-0.368733
G03 X26.606695 Y17.161931 Z-1.000000 I-0.727464 J-1.359997
G01 X25.760992 Y17.161931 Z-1.000000
G01 X25.760992 Y18.747871 Z-1.000000
G03 X25.745859 Y20.334232 Z-1.000000 I-83.157094 J-0.000000
G03 X25.727792 Y20.505681 Z-1.000000 I-1.004355 J-0.019163
G02 X25.791554 Y20.600437 Z-1.000000 I0.079466 J0.015358
G02 X26.940682 Y20.745911 Z-1.000000 I1.621876 J-8.200191
G03 X28.166934 Y20.848135 Z-1.000000 I-1.309004 J23.108434
G03 X28.225839 Y20.886541 Z-1.000000 I-0.008537 J0.077469
G03 X28.242078 Y20.960466 Z-1.000000 I-0.107767 J0.062420
G03 X28.094979 Y22.290841 Z-1.000000 I-37.850160 J-3.511768
G01 X27.923104 Y23.624821 Z-1.000000
G01 X25.956304 Y23.689281 Z-1.000000
G00 Z5.000000

(End cutting path id: path3724)


(Start cutting path id: path3724)
(Change tool to Default tool)

G00 Z5.000000
G00 X28.784429 Y23.738081

G01 Z-1.000000 F100.0(Penetrate)
G01 X28.784429 Y15.234181 Z-1.000000 F400.000000
G01 X28.784429 Y6.728321 Z-1.000000
G01 X30.684820 Y6.728321 Z-1.000000
G01 X32.583257 Y6.728321 Z-1.000000
G01 X32.714117 Y7.579881 Z-1.000000
G03 X32.840275 Y8.429791 Z-1.000000 I-125.387676 J19.046467
G03 X32.928961 Y9.052541 Z-1.000000 I-123.800996 J17.948236
G01 X33.016851 Y9.677541 Z-1.000000
G01 X32.214117 Y9.677541 Z-1.000000
G01 X31.411383 Y9.677541 Z-1.000000
G01 X31.411383 Y11.945111 Z-1.000000
G01 X31.411383 Y14.212691 Z-1.000000
G01 X32.200445 Y14.212691 Z-1.000000
G01 X32.987554 Y14.212691 Z-1.000000
G01 X32.987554 Y15.687301 Z-1.000000
G01 X32.987554 Y17.161911 Z-1.000000
G01 X32.200445 Y17.161911 Z-1.000000
G01 X31.411383 Y17.161911 Z-1.000000
G01 X31.411383 Y18.991991 Z-1.000000
G01 X31.411383 Y20.822071 Z-1.000000
G01 X32.132086 Y20.765471 Z-1.000000
G03 X32.819508 Y20.772842 Z-1.000000 I0.303107 J3.790257
G03 X32.934820 Y20.847471 Z-1.000000 I-0.015233 J0.149937
G03 X32.969695 Y20.994828 Z-1.000000 I-0.227276 J0.131595
G03 X32.882090 Y21.738091 Z-1.000000 I-6.525718 J-0.392362
G02 X32.757299 Y22.492141 Z-1.000000 I35.549330 J6.270581
G02 X32.669199 Y23.115051 Z-1.000000 I24.059027 J3.720410
G01 X32.589119 Y23.738091 Z-1.000000
G01 X30.686775 Y23.738091 Z-1.000000
G01 X28.784429 Y23.738081 Z-1.000000
G00 Z5.000000

(End cutting path id: path3724)


(Start cutting path id: path3724)
(Change tool to Default tool)

G00 Z5.000000
G00 X33.514898 Y23.753781

G01 Z-1.000000 F100.0(Penetrate)
G01 X33.514898 Y15.242061 Z-1.000000 F400.000000
G01 X33.514898 Y6.728391 Z-1.000000
G01 X34.831304 Y6.728391 Z-1.000000
G01 X36.149664 Y6.728391 Z-1.000000
G01 X36.141864 Y13.361201 Z-1.000000
G02 X36.136231 Y19.995628 Z-1.000000 I13414.214762 J14.707695
G02 X36.137964 Y20.279171 Z-1.000000 I21.116048 J0.012707
G02 X36.241996 Y20.461358 Z-1.000000 I0.216403 J-0.002775
G02 X36.602808 Y20.562371 Z-1.000000 I0.360812 J-0.593890
G01 X37.061792 Y20.562371 Z-1.000000
G01 X37.061792 Y13.646351 Z-1.000000
G01 X37.061792 Y6.728391 Z-1.000000
G01 X38.376245 Y6.728391 Z-1.000000
G01 X39.690698 Y6.728391 Z-1.000000
G01 X39.690698 Y14.634641 Z-1.000000
G03 X38.894581 Y22.943030 Z-1.000000 I-43.751825 J-0.000000
G03 X37.930933 Y23.738151 Z-1.000000 I-0.963648 J-0.186386
G03 X36.780808 Y23.608699 Z-1.000000 I-0.000000 J-5.173914
G03 X36.462183 Y23.404171 Z-1.000000 I0.123914 J-0.543489
G02 X36.162178 Y23.227448 Z-1.000000 I-0.368209 J0.282066
G02 X36.044214 Y23.341671 Z-1.000000 I-0.015210 J0.102317
G03 X35.934702 Y23.504488 Z-1.000000 I-0.149959 J0.017374
G03 X34.796167 Y23.689321 Z-1.000000 I-1.403694 J-5.047476
G01 X33.514898 Y23.753781 Z-1.000000
G00 Z5.000000

(End cutting path id: path3724)


(Start cutting path id: path3724)
(Change tool to Default tool)

G00 Z5.000000
G00 X40.083257 Y23.738081

G01 Z-1.000000 F100.0(Penetrate)
G01 X40.083257 Y15.234181 Z-1.000000 F400.000000
G01 X40.083257 Y6.728321 Z-1.000000
G01 X42.966070 Y6.728321 Z-1.000000
G01 X45.846929 Y6.728321 Z-1.000000
G01 X46.118414 Y7.325971 Z-1.000000
G03 X46.265304 Y7.950766 Z-1.000000 I-1.498627 J0.681993
G03 X46.391851 Y15.234181 Z-1.000000 I-209.534970 J7.283415
G03 X46.265453 Y22.515716 Z-1.000000 I-209.800612 J0.000000
G03 X46.118414 Y23.140431 Z-1.000000 I-1.643036 J-0.057059
G01 X45.846929 Y23.738081 Z-1.000000
G01 X42.966070 Y23.738081 Z-1.000000
G01 X40.083257 Y23.738081 Z-1.000000
G00 Z5.000000

(End cutting path id: path3724)


(Start cutting path id: path3724)
(Change tool to Default tool)

G00 Z5.000000
G00 X42.778570 Y20.675611

G01 Z-1.000000 F100.0(Penetrate)
G01 X43.237554 Y20.675611 Z-1.000000 F400.000000
G01 X43.696539 Y20.675611 Z-1.000000
G01 X43.696539 Y15.234211 Z-1.000000
G01 X43.696539 Y9.790851 Z-1.000000
G01 X43.268804 Y9.718551 Z-1.000000
G02 X42.921816 Y9.766819 Z-1.000000 I-0.096306 J0.579024
G02 X42.774664 Y9.950971 Z-1.000000 I0.114454 J0.242326
G02 X42.740166 Y10.257287 Z-1.000000 I1.424345 J0.315514
G02 X42.741464 Y15.464641 Z-1.000000 I397.248766 J2.504651
G01 X42.778570 Y20.675611 Z-1.000000
G00 Z5.000000

(End cutting path id: path3724)


(Start cutting path id: path3724)
(Change tool to Default tool)

G00 Z5.000000
G00 X46.784429 Y23.749781

G01 Z-1.000000 F100.0(Penetrate)
G01 X46.784429 Y15.240021 Z-1.000000 F400.000000
G01 X46.784429 Y6.728301 Z-1.000000
G01 X48.694586 Y6.728301 Z-1.000000
G03 X50.205475 Y7.302355 Z-1.000000 I0.000000 J2.275331
G03 X50.917242 Y8.700951 Z-1.000000 I-1.426704 J1.606484
G01 X51.010992 Y9.654081 Z-1.000000
G01 X50.245367 Y9.722481 Z-1.000000
G01 X49.479742 Y9.790881 Z-1.000000
G01 X49.479742 Y11.945171 Z-1.000000
G01 X49.479742 Y14.099471 Z-1.000000
G01 X50.233648 Y14.167871 Z-1.000000
G01 X50.989507 Y14.236271 Z-1.000000
G01 X50.989507 Y15.697211 Z-1.000000
G01 X50.989507 Y17.160101 Z-1.000000
G01 X50.196539 Y17.160101 Z-1.000000
G01 X49.401617 Y17.160101 Z-1.000000
G01 X49.440677 Y18.917911 Z-1.000000
G01 X49.479737 Y20.675721 Z-1.000000
G01 X50.235596 Y20.675721 Z-1.000000
G03 X50.682559 Y21.002935 Z-1.000000 I0.000000 J0.468875
G03 X50.811768 Y22.490181 Z-1.000000 I-3.256644 J1.032166
G01 X50.659424 Y23.624941 Z-1.000000
G01 X48.721924 Y23.687441 Z-1.000000
G01 X46.784429 Y23.749781 Z-1.000000
G00 Z5.000000

(End cutting path id: path3724)


(Start cutting path id: path3724)
(Change tool to Default tool)

G00 Z5.000000
G00 X51.514898 Y23.738081

G01 Z-1.000000 F100.0(Penetrate)
G01 X51.514898 Y15.241991 Z-1.000000 F400.000000
G01 X51.514898 Y6.745891 Z-1.000000
G01 X52.731695 Y6.681491 Z-1.000000
G03 X53.935554 Y6.650633 Z-1.000000 I1.158251 J21.688494
G03 X54.044195 Y6.685491 Z-1.000000 I-0.000395 J0.187959
G03 X54.095059 Y6.780241 Z-1.000000 I-0.069986 J0.098598
G03 X54.147711 Y9.974551 Z-1.000000 I-104.004382 J3.311884
G02 X54.205647 Y12.843873 Z-1.000000 I75.729561 J-0.093849
G01 X54.260992 Y12.851501 Z-1.000000
G02 X54.352405 Y12.506583 Z-1.000000 I-3.132852 J-1.014870
G02 X54.930914 Y9.621031 Z-1.000000 I-205.588192 J-42.718028
G01 X55.489507 Y6.728461 Z-1.000000
G01 X56.843023 Y6.728461 Z-1.000000
G01 X58.198492 Y6.728461 Z-1.000000
G01 X57.616461 Y9.724551 Z-1.000000
G02 X57.066007 Y12.723558 Z-1.000000 I143.732821 J27.931545
G02 X57.034429 Y13.091741 Z-1.000000 I2.130656 J0.368183
G02 X57.091963 Y13.445771 Z-1.000000 I1.118015 J0.000000
G02 X57.296148 Y13.872991 Z-1.000000 I1.820986 J-0.607917
G03 X57.440605 Y14.318015 Z-1.000000 I-0.779092 J0.498855
G03 X57.559820 Y18.412051 Z-1.000000 I-70.238483 J4.094036
G03 X57.442465 Y22.517225 Z-1.000000 I-71.860061 J-0.000000
G03 X57.288336 Y23.140571 Z-1.000000 I-1.740301 J-0.099581
G01 X57.014898 Y23.738221 Z-1.000000
G01 X54.264898 Y23.738221 Z-1.000000
G01 X51.514898 Y23.738081 Z-1.000000
G00 Z5.000000

(End cutting path id: path3724)


(Start cutting path id: path3724)
(Change tool to Default tool)

G00 Z5.000000
G00 X54.462164 Y20.788891

G01 Z-1.000000 F100.0(Penetrate)
G02 X54.885730 Y20.479553 Z-1.000000 I0.000000 J-0.444656 F400.000000
G02 X55.194586 Y18.497881 Z-1.000000 I-6.202939 J-1.981672
G02 X55.116347 Y16.550712 Z-1.000000 I-24.269292 J0.000000
G02 X55.030523 Y16.462721 Z-1.000000 I-0.095935 J0.007722
G03 X54.868200 Y16.436081 Z-1.000000 I0.172752 J-1.560466
G03 X54.669195 Y16.382621 Z-1.000000 I0.464442 J-2.126017
G02 X54.384520 Y16.544394 Z-1.000000 I-0.067888 J0.211896
G02 X54.143804 Y18.654111 Z-1.000000 I9.124770 J2.109717
G02 X54.291502 Y20.641817 Z-1.000000 I13.449042 J-0.000000
G02 X54.462164 Y20.788871 Z-1.000000 I0.170662 J-0.025503
G01 X54.462164 Y20.788891 Z-1.000000
G00 Z5.000000

(End cutting path id: path3724)


(Footer)
M5
G00 X0.0000 Y0.0000
M2
(Using default footer. To add your own footer create file "footer" in the output dir.)
(end)
%